src/standard/single-sign-on.svg

<svg xmlns="http://www.w3.org/2000/svg" viewBox="0 0 36 36">
  <path d="M31 29.38h-7.46a2.62 2.62 0 1 0 0 1.24h2.84V32a.62.62 0 0 0 1.24 0v-1.38h.76V32a.62.62 0 0 0 1.24 0v-1.38h.76V31a.62.62 0 0 0 1.24 0v-1a.62.62 0 0 0-.62-.62Z"/>
  <path d="M18 18.62a12.35 12.35 0 0 1 11.78 8.57.62.62 0 0 0 .79.4.62.62 0 0 0 .4-.78 13.58 13.58 0 0 0-9.63-9 7.12 7.12 0 1 0-6.66 0A13.63 13.63 0 0 0 4.38 31a.62.62 0 0 0 .62.62h11a.62.62 0 0 0 0-1.24H5.64A12.4 12.4 0 0 1 18 18.62Zm-5.88-7.12A5.88 5.88 0 1 1 18 17.38a5.89 5.89 0 0 1-5.88-5.88Z"/>
</svg>

<svg id="ba8fb066-8683-470a-b0fc-f70ace476bdf" data-name="Icon" xmlns="http://www.w3.org/2000/svg" viewBox="0 0 36 36">
  <title>Single sign on icon - Black</title>
<desc>person, key, login, log in, unlock, open, SSO, access, kerberos, token, web, website, internet, online, software and technologies</desc>
<metadata><?xpacket begin="﻿" id="W5M0MpCehiHzreSzNTczkc9d"?>
<x:xmpmeta xmlns:x="adobe:ns:meta/" x:xmptk="Adobe XMP Core 8.0-c001 1.000000, 0000/00/00-00:00:00        ">
   <rdf:RDF xmlns:rdf="http://www.w3.org/1999/02/22-rdf-syntax-ns#">
      <rdf:Description rdf:about=""
            xmlns:xmp="http://ns.adobe.com/xap/1.0/"
            xmlns:dc="http://purl.org/dc/elements/1.1/"
            xmlns:cq="http://www.day.com/jcr/cq/1.0"
            xmlns:tiff="http://ns.adobe.com/tiff/1.0/">
         <xmp:rhcc-effective-on>2023-12-08T17:44:20.451Z</xmp:rhcc-effective-on>
         <xmp:rhcc-metadata-complete-moderator>pending</xmp:rhcc-metadata-complete-moderator>
         <xmp:rhcc-translation-id>TRAa861c6d9-ae47-4724-909f-63dbec17f5f6</xmp:rhcc-translation-id>
         <xmp:brand-content-type>Icon</xmp:brand-content-type>
         <xmp:CreateDate>2023-12-08T17:44:20.451Z</xmp:CreateDate>
         <xmp:rhcc-effective-on-set-on-upload>true</xmp:rhcc-effective-on-set-on-upload>
         <xmp:rhcc-metadata-complete-uploader>pending</xmp:rhcc-metadata-complete-uploader>
         <xmp:rhcc-file-last-modified>2023-12-08T17:45:17.092Z</xmp:rhcc-file-last-modified>
         <xmp:rhcc-audience>rhcc-audience:internal</xmp:rhcc-audience>
         <xmp:rhcc-rights-restricted>no</xmp:rhcc-rights-restricted>
         <xmp:brand-content-subtype>Icon</xmp:brand-content-subtype>
         <xmp:rhcc-derivative-id>DERa861c6d9-ae47-4724-909f-63dbec17f5f6</xmp:rhcc-derivative-id>
         <xmp:brand-logo-color>Black</xmp:brand-logo-color>
         <xmp:rhcc-notify-portal-subscribers-on-change>yes</xmp:rhcc-notify-portal-subscribers-on-change>
         <dc:format>image/svg+xml</dc:format>
         <dc:modified>2024-02-09T20:18:47.033Z</dc:modified>
         <dc:title>
            <rdf:Alt>
               <rdf:li xml:lang="x-default">Single sign on icon - Black</rdf:li>
            </rdf:Alt>
         </dc:title>
         <dc:description>
            <rdf:Alt>
               <rdf:li xml:lang="x-default">person, key, login, log in, unlock, open, SSO, access, kerberos, token, web, website, internet, online, software and technologies</rdf:li>
            </rdf:Alt>
         </dc:description>
         <cq:lastReplicationAction_scene7>Activate</cq:lastReplicationAction_scene7>
         <cq:lastReplicationAction_publish>Activate</cq:lastReplicationAction_publish>
         <cq:lastReplicated_publish>2024-02-09T21:56:01.425Z</cq:lastReplicated_publish>
         <cq:lastReplicatedBy>workflow-process-service</cq:lastReplicatedBy>
         <cq:lastReplicationAction>Activate</cq:lastReplicationAction>
         <cq:lastReplicatedBy_publish>workflow-process-service</cq:lastReplicatedBy_publish>
         <cq:isDelivered>true</cq:isDelivered>
         <cq:lastReplicated>2024-02-09T21:56:01.425Z</cq:lastReplicated>
         <cq:lastReplicatedBy_scene7>workflow-process-service</cq:lastReplicatedBy_scene7>
         <cq:lastReplicated_scene7>2024-02-09T21:56:01.425Z</cq:lastReplicated_scene7>
         <tiff:ImageLength>36</tiff:ImageLength>
         <tiff:ImageWidth>36</tiff:ImageWidth>
      </rdf:Description>
   </rdf:RDF>
</x:xmpmeta>
                                                                                                    
                                                                                                    
                                                                                                    
                                                                                                    
                                                                                                    
                                                                                                    
                                                                                                    
                                                                                                    
                                                                                                    
                                                                                                    
                                 
<?xpacket end="w"?></metadata>
<g>
    <path d="M31,29.38H23.54a2.62,2.62,0,1,0,0,1.24h2.84V32a.62.62,0,0,0,1.24,0V30.62h.76V32a.62.62,0,0,0,1.24,0V30.62h.76V31a.62.62,0,0,0,1.24,0V30A.62.62,0,0,0,31,29.38Z"/>
    <path d="M18,18.62a12.35,12.35,0,0,1,11.78,8.57.62.62,0,0,0,.79.4.62.62,0,0,0,.4-.78,13.58,13.58,0,0,0-9.63-9,7.12,7.12,0,1,0-6.66,0A13.63,13.63,0,0,0,4.38,31a.62.62,0,0,0,.62.62H16a.62.62,0,0,0,0-1.24H5.64A12.4,12.4,0,0,1,18,18.62ZM12.12,11.5A5.88,5.88,0,1,1,18,17.38,5.89,5.89,0,0,1,12.12,11.5Z"/>
  </g>
</svg>
